X:1
T:Winster Gallop
M:2/4
L:1/16
K:G
"G"G2B2 G2B2|"G"G2B2 d4|"Am"A3c B2A2|"G"G2B2 d4|
"C"c2e2 f2e2|"G"d2B2 d4|"D"A2Bc B2A2|"G"G4G4:|
|:"Em"g2f2 e2d2|"Em"g2f2 e2d2|"Em"g2f2 e2d2|"Am"c2"G"B2 "D"A4|
"C"f2e2 "G"d4|"C"f2e2 "G"d4|"G"d4"D"A3c|"G"B2G2 G4:|
%%newpage
%% *******************************************

